X:114
T:Green Groves of Erin (reel), The 
B:CRE2.234 (Garrain Ghlasa na hEireann) 
F:file ID: cre.2/114green_gr
M:C
R:reel
Q:180
K:Am
A2BA eABA|G2 (3BAG dGBG|A2BA EABA|AGE^F GABG|
"5"A2BA eABA|G2Bd gdBG|A2Bd edBA|AGE^F GABG|
"9"A2BA eABA|G2Bd gdBG|A2BA EAA2|AEE2 GABG|
"13"A2BA eABA|G2 (3BAG dG (3BAG|ABcd edcA|AGE^F GABd||
"17"eaa2 eaag|egg2 egg2|eaa2 bgag|ede^f (3gfe d2|
"21"eaa2 bgag|ede^f g2ge|dega bgag|1 (3e^fg ga ged/^c/d:|\
[2 egga gedB||

